assets/icons/bowtie/1.22/uE622-comment-urgent.svg

<svg xmlns="http://www.w3.org/2000/svg" viewBox="0 0 448 448" enable-background="new 0 0 448 448"><path d="M64 443.938v-91.938h-64v-320h416v320h-249.859l-102.141 91.938zm-32-123.938h64v52.063l57.859-52.063h230.141v-256h-352v256zm192-224h-32v128h32v-128zm0 160h-32v32h32v-32z"/></svg>

<svg xmlns="http://www.w3.org/2000/svg" viewBox="0 0 448 448"><path d="M64 443.938V352H0V32h416v320H166.14L64 443.938zM32 320h64v52.063L153.86 320H384V64H32v256zM224 96h-32v128h32V96zm0 160h-32v32h32v-32z"/></svg>
